src/icons/svgs/24/facebook.svg

<svg width="24" height="24" viewBox="0 0 24 24" fill="none" xmlns="http://www.w3.org/2000/svg">
<path d="M22 12.0608C22.0004 10.1385 21.4532 8.25626 20.4231 6.63706C19.393 5.01785 17.9232 3.72946 16.1877 2.92445C14.4522 2.11944 12.5237 1.83151 10.6305 2.09477C8.73739 2.35803 6.9589 3.16145 5.50564 4.40989C4.05237 5.65833 2.98521 7.29951 2.43049 9.13911C1.87578 10.9787 1.85676 12.9397 2.37568 14.7898C2.8946 16.6399 3.92973 18.3017 5.35849 19.5784C6.78726 20.8552 8.54983 21.6933 10.4375 21.9937V14.9678H7.89875V12.0608H10.4375V9.84415C10.3828 9.32669 10.442 8.80348 10.6108 8.31159C10.7796 7.81969 11.0539 7.37116 11.4142 6.99779C11.7745 6.62441 12.2121 6.33533 12.6959 6.15104C13.1797 5.96674 13.6979 5.89174 14.2137 5.93135C14.9638 5.94126 15.7121 6.00682 16.4525 6.12749V8.60568H15.1925C14.9779 8.57745 14.7597 8.59813 14.554 8.66618C14.3484 8.73423 14.1607 8.84792 14.0046 8.99883C13.8486 9.14974 13.7283 9.33402 13.6526 9.53801C13.577 9.74201 13.5479 9.96051 13.5675 10.1773V12.0633H16.3412L15.8975 14.9703H13.5625V22C15.9153 21.6256 18.058 20.4187 19.6048 18.5966C21.1516 16.7745 22.001 14.4568 22 12.0608V12.0608Z" fill="black"/>
</svg>

<svg width="24" height="24" viewBox="0 0 24 24" xmlns="http://www.w3.org/2000/svg">
    <path d="M22 12.06c0-1.921-.547-3.804-1.577-5.423a10.018 10.018 0 0 0-4.235-3.713A9.948 9.948 0 0 0 5.506 4.41 10.064 10.064 0 0 0 2.43 9.14a10.118 10.118 0 0 0-.054 5.65 10.067 10.067 0 0 0 2.982 4.788 9.975 9.975 0 0 0 5.08 2.416v-7.026h-2.54V12.06h2.54V9.844a3.567 3.567 0 0 1 .976-2.846 3.525 3.525 0 0 1 2.8-1.067c.75.01 1.498.076 2.239.196v2.479h-1.26a1.436 1.436 0 0 0-1.188.393 1.454 1.454 0 0 0-.438 1.178v1.886h2.774l-.444 2.907h-2.335V22a9.986 9.986 0 0 0 6.043-3.403A10.094 10.094 0 0 0 22 12.06z"/>
</svg>
